X:1
T:Title
L:1/8
M:6/8
I:linebreak $
K:D
V:1 treble nm="Voice"
V:1
"D" AdA FAA |"A" GAE AEA |"D" AdA FAA |"G" GBB BAG |"D" AdA FAA |"A" GAE AEA |"D" AdA"G" BAG | %7
"D" FAE D3 ::"D" dAA fAA | AaA fed |"A" cAA eAA | AgA ecA |"D" dAA fAA | AaA fed |"A" cAA afe | %15
"D" fdd d3 :| %16
